icons/.local/share/icons/kora/apps/scalable/rclone-browser.svg

<svg xmlns="http://www.w3.org/2000/svg" width="48" height="48">
 <path style="opacity:0.2" d="M 24.347656,5.0038329 C 19.737952,4.8843692 15.20987,7.2220225 12.742188,11.488208 c -1.344142,2.323783 -1.884811,4.891729 -1.710938,7.38086 1.473889,-0.517547 3.058104,-0.802592 4.707031,-0.802735 l 2.269531,-0.002 A 6.0002202,5.9890368 0 0 1 18.804688,14.984302 6.0002202,5.9890368 0 0 1 27,12.792896 a 6.0002202,5.9890368 0 0 1 2.457031,7.662109 6.0002202,5.9890368 0 0 1 -0.259765,0.517578 6.0002202,5.9890368 0 0 1 -0.02148,0.0332 l -2.599609,4.5 1.826172,3.494141 4.236328,-0.002 2.617187,-4.535156 C 38.845216,18.257457 36.714468,10.322523 30.498047,6.7401611 28.55525,5.6205771 26.442976,5.0581346 24.347656,5.0038329 Z m -3.105468,13.9960941 -5.244141,0.0039 C 8.8195972,19.003833 3,24.82404 3,32.00188 c 0,7.178447 5.8195972,12.998047 12.998047,12.998047 2.688185,0 5.18515,-0.817427 7.257812,-2.214844 -1.185946,-1.017131 -2.224272,-2.24594 -3.048828,-3.673828 L 19.070312,37.146411 A 6,6 0 0 1 16,37.999927 a 6,6 0 0 1 -6,-6 6,6 0 0 1 5.419922,-5.964844 A 6,6 0 0 1 16,25.999927 a 6,6 0 0 1 0.03906,0.002 l 5.203126,-0.0039 2.11914,-3.330078 z m 16.486328,1.328125 c -0.288736,1.535199 -0.833864,3.048479 -1.658204,4.476563 l -1.132812,1.96875 a 5.9890368,6.0002202 30 0 1 2.269531,2.228515 5.9890368,6.0002202 30 0 1 -2.201172,8.195313 5.9890368,6.0002202 30 0 1 -7.863281,-1.705078 5.9890368,6.0002202 30 0 1 -0.318359,-0.484376 5.9890368,6.0002202 30 0 1 -0.01758,-0.03516 l -2.597657,-4.5 -3.939453,-0.166015 -2.117187,3.667968 2.61914,4.53711 c 3.579321,6.211155 11.515936,8.332632 17.726563,4.740234 6.211158,-3.592703 8.344946,-11.540798 4.765625,-17.751953 -1.340385,-2.325951 -3.292569,-4.077888 -5.535156,-5.171875 z"/>
 <path style="fill:#aee5ff" d="m 18.153,32.975352 2.618211,4.535542 c 3.579321,6.211155 11.517025,8.33364 17.727652,4.741242 6.211158,-3.592703 8.344797,-11.540728 4.765476,-17.751883 -1.340385,-2.325951 -3.292701,-4.077341 -5.535288,-5.171328 -0.288736,1.535199 -0.834233,3.048609 -1.658572,4.476693 l -1.133292,1.966918 a 5.9890368,6.0002202 30 0 1 2.269426,2.229416 5.9890368,6.0002202 30 0 1 -2.199778,8.194408 5.9890368,6.0002202 30 0 1 -7.863565,-1.704278 5.9890368,6.0002202 30 0 1 -0.319659,-0.484317 5.9890368,6.0002202 30 0 1 -0.01775,-0.0348 l -2.597806,-4.500024 -3.937996,-0.166935 z"/>
 <path style="fill:#64cefe" d="m 32.637755,27.998754 2.618789,-4.535208 C 38.845901,17.258185 36.715175,9.3226896 30.498754,5.7403273 24.281803,2.1576585 16.331792,4.2838854 12.742435,10.489246 c -1.344141,2.323783 -1.884731,4.890233 -1.710858,7.379364 1.473889,-0.517547 3.057289,-0.801838 4.706216,-0.801981 l 2.270047,-0.002 a 6.0002202,5.9890368 0 0 1 0.796018,-3.080088 6.0002202,5.9890368 0 0 1 8.196454,-2.19214 6.0002202,5.9890368 0 0 1 2.455835,7.662186 6.0002202,5.9890368 0 0 1 -0.259602,0.518991 6.0002202,5.9890368 0 0 1 -0.02126,0.03277 L 26.57705,24.506128 28.401479,28 Z"/>
 <path style="fill:#2279ca" d="M 21.242188 18 L 15.998047 18.003906 C 8.8195973 18.003906 3 23.824113 3 31.001953 C 3 38.1804 8.8195973 44 15.998047 44 C 18.686232 44 21.183197 43.182573 23.255859 41.785156 C 22.069913 40.768025 21.031587 39.539216 20.207031 38.111328 L 19.070312 36.146484 A 6 6 0 0 1 16 37 A 6 6 0 0 1 10 31 A 6 6 0 0 1 15.419922 25.035156 A 6 6 0 0 1 16 25 A 6 6 0 0 1 16.039062 25.001953 L 21.242188 24.998047 L 23.361328 21.667969 L 21.242188 18 z"/>
 <path style="fill:#ffffff;opacity:0.2" d="M 24.347656 4.0039062 C 19.737952 3.8844425 15.20987 6.222096 12.742188 10.488281 C 11.468756 12.689818 10.924302 15.109555 11.017578 17.474609 C 11.094689 15.43358 11.647799 13.380286 12.742188 11.488281 C 16.331544 5.2829208 24.281096 3.1575656 30.498047 6.7402344 C 34.53508 9.0666722 36.835308 13.230396 36.978516 17.5625 C 37.186704 12.879724 34.845549 8.245587 30.498047 5.7402344 C 28.55525 4.6206504 26.442976 4.058208 24.347656 4.0039062 z M 29.966797 17.482422 A 6.0002202 5.9890368 0 0 1 29.457031 19.455078 A 6.0002202 5.9890368 0 0 1 29.197266 19.972656 A 6.0002202 5.9890368 0 0 1 29.175781 20.005859 L 26.576172 24.505859 L 26.849609 25.03125 L 29.175781 21.005859 A 6.0002202 5.9890368 0 0 0 29.197266 20.972656 A 6.0002202 5.9890368 0 0 0 29.457031 20.455078 A 6.0002202 5.9890368 0 0 0 29.966797 17.482422 z M 37.728516 19.328125 C 37.43978 20.863324 36.894652 22.376604 36.070312 23.804688 L 34.9375 25.773438 A 5.9890368 6.0002202 30 0 1 35.361328 26.037109 L 36.070312 24.804688 C 36.894652 23.376604 37.43978 21.863324 37.728516 20.328125 C 39.971103 21.422112 41.923287 23.174049 43.263672 25.5 C 44.339833 27.36745 44.890772 29.392317 44.978516 31.408203 C 45.057321 29.066599 44.518318 26.677173 43.263672 24.5 C 41.923287 22.174049 39.971103 20.422112 37.728516 19.328125 z M 20.269531 29.306641 L 18.152344 32.974609 L 18.441406 33.474609 L 20.269531 30.306641 L 24.208984 30.472656 L 26.806641 34.972656 A 5.9890368 6.0002202 30 0 0 26.824219 35.007812 A 5.9890368 6.0002202 30 0 0 27.142578 35.492188 A 5.9890368 6.0002202 30 0 0 35.005859 37.197266 A 5.9890368 6.0002202 30 0 0 37.980469 31.519531 A 5.9890368 6.0002202 30 0 1 35.005859 36.197266 A 5.9890368 6.0002202 30 0 1 27.142578 34.492188 A 5.9890368 6.0002202 30 0 1 26.824219 34.007812 A 5.9890368 6.0002202 30 0 1 26.806641 33.972656 L 24.208984 29.472656 L 20.269531 29.306641 z"/>
 <path style="fill:#ffffff;opacity:0.1" d="M 21.242188 18 L 15.998047 18.003906 C 8.8195972 18.003906 3 23.824113 3 31.001953 C 3 31.170864 3.0190044 31.334605 3.0253906 31.501953 C 3.2904087 24.55781 8.9885085 19.003912 15.998047 19.003906 L 21.242188 19 L 23.058594 22.144531 L 23.361328 21.667969 L 21.242188 18 z M 10.025391 31.507812 A 6 6 0 0 0 10 32 A 6 6 0 0 0 16 38 A 6 6 0 0 0 19.070312 37.146484 L 20.207031 39.111328 C 20.877712 40.27275 21.69534 41.294324 22.613281 42.185547 C 22.830637 42.056692 23.04689 41.926046 23.255859 41.785156 C 22.069913 40.768025 21.031587 39.539216 20.207031 38.111328 L 19.070312 36.146484 A 6 6 0 0 1 16 37 A 6 6 0 0 1 10.025391 31.507812 z"/>
</svg>

<svg clip-rule="evenodd" fill-rule="evenodd" stroke-linejoin="round" stroke-miterlimit="2" viewBox="0 0 48 48" xmlns="http://www.w3.org/2000/svg">
 <g transform="matrix(1.06215 0 0 1.06215 -1.49164 -1.49163)" fill-rule="nonzero">
  <path d="m18.153 32.975 2.618 4.536c3.58 6.211 11.517 8.334 17.728 4.741s8.345-11.541 4.765-17.752c-1.34-2.326-3.292-4.077-5.535-5.171-.289 1.535-.834 3.049-1.659 4.477l-1.133 1.967c.944.524 1.728 1.294 2.27 2.229 1.067 1.852 1.065 4.143-.005 5.997-.527.912-1.284 1.67-2.195 2.197-2.659 1.534-6.083.792-7.864-1.704-.114-.156-.221-.318-.319-.484-.006-.012-.012-.023-.018-.035l-2.598-4.5-3.938-.167z" fill="#aee5ff"/>
  <path d="m32.638 27.999 2.619-4.535c3.589-6.206 1.458-14.141-4.758-17.724-6.217-3.582-14.167-1.456-17.757 4.749-1.344 2.324-1.884 4.89-1.71 7.38 1.473-.518 3.057-.802 4.706-.802l2.27-.002c-.018-1.08.257-2.144.796-3.08 1.07-1.851 3.055-2.995 5.196-2.995 1.053 0 2.088.277 3 .802 2.658 1.536 3.727 4.873 2.456 7.663-.078.177-.165.35-.259.519-.008.011-.015.021-.022.032l-2.598 4.5 1.824 3.494z" fill="#64cefe"/>
  <path d="m21.242 18-5.244.004c-7.178 0-12.998 5.82-12.998 12.998s5.82 12.998 12.998 12.998c2.688 0 5.185-.817 7.258-2.215-1.186-1.017-2.224-2.246-3.049-3.674l-1.137-1.965c-.927.556-1.988.851-3.07.854-3.292 0-6-2.708-6-6 .004-3.071 2.364-5.668 5.42-5.965.193-.021.386-.033.58-.035.013.001.026.001.039.002l5.203-.004 2.119-3.33z" fill="#2279ca"/>
 </g>
</svg>
